src/gnome-shell/assets-Dark/activities/activities-manjaro.svg

<svg width="24" height="24" enable-background="new" version="1.0" xmlns="http://www.w3.org/2000/svg">
 <g transform="translate(0,-276)" opacity=".8">
  <path transform="translate(0,276)" d="m5 3.0156c-1.108 0-2 0.892-2 2v3.3262h0.0019531l-0.0019531 1.6582h5v-2h7v-4.9844h-10zm11 0v17.984h3c1.108 0 2-0.892 2-2v-13.984c0-1.108-0.892-2-2-2h-3zm-7 5.9844-0.0019531 12h6.002v-12h-6zm-5.998 2v8.041c0.021917 1.0887 0.9039 1.959 1.998 1.959h3.0039v-10h-5.002z" fill="#ffffff" fill-rule="evenodd" stroke-width="2.8347"/>
 </g>
</svg>

<svg xmlns="http://www.w3.org/2000/svg" width="24" height="24" version="1.0"><path fill="#fff" fill-rule="evenodd" d="M5 3.016c-1.108 0-2 .892-2 2v3.326h.002L3 10h5V8h7V3.016H5zm11 0V21h3c1.108 0 2-.892 2-2V5.016c0-1.108-.892-2-2-2h-3zM9 9l-.002 12H15V9H9zm-5.998 2v8.041A1.995 1.995 0 0 0 5 21h3.004V11H3.002z" opacity=".8"/></svg>
